;Begin Header section
;Clark-y test 250mm 4mm spar
G21
G17
G90
;End Header section
;param, AxisNames=XYUZ
;param, towerDistance=770.0
;param, towerOffsetL=359.0
;param, towerOffsetR=359.0
;param, materialSize=250.6;50.0;52.0
;param, materialOffset=5.0;0.0
;param, machineSizeX=800.0
;param, machineSizeY=300.0
;Switch On Hot wire

;Start Cutting Blocks
G1 X 0.0000 Y 17.3288 U 0.0000 V 17.3288 F 120.0000
;#1: A-1 - Right: Start cutting Upper Wing Surface
G93
G1 X 5.0490 Y 17.3288 U 5.0490 V 17.3288 F 23.7673
G1 X 5.0000 Y 19.3186 U 5.0000 V 19.3186 F 60.2907
G1 X 6.0101 Y 19.5263 U 6.0101 V 19.5263 F 116.3686
G1 X 7.0202 Y 19.7340 U 7.0202 V 19.7340 F 116.3640
G1 X 8.0303 Y 19.9419 U 8.0303 V 19.9419 F 116.3580
G1 X 9.0405 Y 20.1499 U 9.0405 V 20.1499 F 116.3467
G1 X 10.0509 Y 20.3580 U 10.0509 V 20.3580 F 116.3299
G1 X 11.0614 Y 20.5659 U 11.0614 V 20.5659 F 116.3124
G1 X 12.0721 Y 20.7738 U 12.0721 V 20.7738 F 116.2985
G1 X 13.0829 Y 20.9815 U 13.0829 V 20.9815 F 116.2903
G1 X 14.0938 Y 21.1889 U 14.0938 V 21.1889 F 116.2740
G1 X 15.1050 Y 21.3965 U 15.1050 V 21.3965 F 116.2460
G1 X 16.1167 Y 21.6028 U 16.1167 V 21.6028 F 116.2312
G1 X 17.1284 Y 21.8091 U 17.1284 V 21.8091 F 116.2156
G1 X 18.1406 Y 22.0140 U 18.1406 V 22.0140 F 116.2006
G1 X 19.1528 Y 22.2189 U 19.1528 V 22.2189 F 116.1933
G1 X 20.1654 Y 22.4224 U 20.1654 V 22.4224 F 116.1793
G1 X 21.1782 Y 22.6260 U 21.1782 V 22.6260 F 116.1654
G1 X 22.1914 Y 22.8280 U 22.1914 V 22.8280 F 116.1529
G1 X 23.2044 Y 23.0298 U 23.2044 V 23.0298 F 116.1733
G1 X 24.2178 Y 23.2316 U 24.2178 V 23.2316 F 116.1307
G1 X 25.2316 Y 23.4319 U 25.2316 V 23.4319 F 116.1200
G1 X 26.2455 Y 23.6323 U 26.2455 V 23.6323 F 116.1155
G1 X 27.2597 Y 23.8313 U 27.2597 V 23.8313 F 116.1022
G1 X 28.2740 Y 24.0303 U 28.2740 V 24.0303 F 116.0922
G1 X 29.2887 Y 24.2280 U 29.2887 V 24.2280 F 116.0788
G1 X 30.3035 Y 24.4257 U 30.3035 V 24.4257 F 116.0756
G1 X 31.3185 Y 24.6221 U 31.3185 V 24.6221 F 116.0638
G1 X 32.3337 Y 24.8186 U 32.3337 V 24.8186 F 116.0531
G1 X 33.3492 Y 25.0139 U 33.3492 V 25.0139 F 116.0427
G1 X 34.3647 Y 25.2089 U 34.3647 V 25.2089 F 116.0531
G1 X 35.3804 Y 25.4040 U 35.3804 V 25.4040 F 116.0134
G1 X 36.3966 Y 25.5976 U 36.3966 V 25.5976 F 116.0031
G1 X 37.4129 Y 25.7912 U 37.4129 V 25.7912 F 115.9949
G1 X 38.4295 Y 25.9833 U 38.4295 V 25.9833 F 115.9822
G1 X 39.4462 Y 26.1755 U 39.4462 V 26.1755 F 115.9791
G1 X 40.4632 Y 26.3663 U 40.4632 V 26.3663 F 115.9678
G1 X 41.4804 Y 26.5571 U 41.4804 V 26.5571 F 115.9566
G1 X 42.4978 Y 26.7466 U 42.4978 V 26.7466 F 115.9466
G1 X 43.5152 Y 26.9358 U 43.5152 V 26.9358 F 115.9607
G1 X 44.5330 Y 27.1250 U 44.5330 V 27.1250 F 115.9186
G1 X 45.5511 Y 27.3126 U 45.5511 V 27.3126 F 115.9093
G1 X 46.5694 Y 27.5003 U 46.5694 V 27.5003 F 115.9002
G1 X 47.5880 Y 27.6862 U 47.5880 V 27.6862 F 115.8882
G1 X 48.6067 Y 27.8722 U 48.6067 V 27.8722 F 115.8809
G1 X 49.6258 Y 28.0565 U 49.6258 V 28.0565 F 115.8702
G1 X 50.6447 Y 28.2406 U 50.6447 V 28.2406 F 115.8971
G1 X 51.6640 Y 28.4247 U 51.6640 V 28.4247 F 115.8512
G1 X 52.6837 Y 28.6072 U 52.6837 V 28.6072 F 115.8426
G1 X 53.7035 Y 28.7897 U 53.7035 V 28.7897 F 115.8380
G1 X 54.7235 Y 28.9707 U 54.7235 V 28.9707 F 115.8275
G1 X 55.7438 Y 29.1518 U 55.7438 V 29.1518 F 115.8111
G1 X 56.7644 Y 29.3310 U 56.7644 V 29.3310 F 115.8001
G1 X 57.7851 Y 29.5102 U 57.7851 V 29.5102 F 115.7934
G1 X 58.8063 Y 29.6876 U 58.8063 V 29.6876 F 115.7835
G1 X 59.8271 Y 29.8648 U 59.8271 V 29.8648 F 115.8148
G1 X 60.8484 Y 30.0421 U 60.8484 V 30.0421 F 115.7674
G1 X 61.8701 Y 30.2176 U 61.8701 V 30.2176 F 115.7596
G1 X 62.8918 Y 30.3931 U 62.8918 V 30.3931 F 115.7558
G1 X 63.9138 Y 30.5670 U 63.9138 V 30.5670 F 115.7465
G1 X 64.9360 Y 30.7410 U 64.9360 V 30.7410 F 115.7319
G1 X 65.9586 Y 30.9131 U 65.9586 V 30.9131 F 115.7221
G1 X 66.9812 Y 31.0852 U 66.9812 V 31.0852 F 115.7198
G1 X 68.0042 Y 31.2557 U 68.0042 V 31.2557 F 115.7107
G1 X 69.0271 Y 31.4261 U 69.0271 V 31.4261 F 115.7153
G1 X 70.0506 Y 31.5954 U 70.0506 V 31.5954 F 115.6785
G1 X 71.0740 Y 31.7635 U 71.0740 V 31.7635 F 115.7042
G1 X 72.0976 Y 31.9318 U 72.0976 V 31.9318 F 115.6805
G1 X 73.1215 Y 32.0983 U 73.1215 V 32.0983 F 115.6722
G1 X 74.1456 Y 32.2649 U 74.1456 V 32.2649 F 115.6597
G1 X 75.1700 Y 32.4297 U 75.1700 V 32.4297 F 115.6512
G1 X 76.1945 Y 32.5945 U 76.1945 V 32.5945 F 115.6459
G1 X 77.2194 Y 32.7574 U 77.2194 V 32.7574 F 115.6378
G1 X 78.2443 Y 32.9204 U 78.2443 V 32.9204 F 115.6295
G1 X 79.2696 Y 33.0816 U 79.2696 V 33.0816 F 115.6221
G1 X 80.2946 Y 33.2425 U 80.2946 V 33.2425 F 115.6514
G1 X 81.3201 Y 33.4034 U 81.3201 V 33.4034 F 115.6034
G1 X 82.3459 Y 33.5623 U 82.3459 V 33.5623 F 115.5978
G1 X 83.3718 Y 33.7213 U 83.3718 V 33.7213 F 115.5917
G1 X 84.3981 Y 33.8783 U 84.3981 V 33.8783 F 115.5845
G1 X 85.4239 Y 34.0353 U 85.4239 V 34.0353 F 115.6305
G1 X 86.4512 Y 34.1903 U 86.4512 V 34.1903 F 115.5059
G1 X 87.4780 Y 34.3452 U 87.4780 V 34.3452 F 115.5618
G1 X 88.5052 Y 34.4980 U 88.5052 V 34.4980 F 115.5553
G1 X 89.5322 Y 34.6509 U 89.5322 V 34.6509 F 115.5647
G1 X 90.5600 Y 34.8023 U 90.5600 V 34.8023 F 115.5052
G1 X 91.5878 Y 34.9518 U 91.5878 V 34.9518 F 115.5414
G1 X 92.6151 Y 35.1012 U 92.6151 V 35.1012 F 115.5949
G1 X 93.6443 Y 35.2477 U 93.6443 V 35.2477 F 115.4308
G1 X 94.6737 Y 35.3943 U 94.6737 V 35.3943 F 115.4062
G1 X 95.7020 Y 35.5372 U 95.7020 V 35.5372 F 115.5948
G1 X 96.7318 Y 35.6802 U 96.7318 V 35.6802 F 115.4166
G1 X 97.7605 Y 35.8198 U 97.7605 V 35.8198 F 115.5949
G1 X 98.7892 Y 35.9594 U 98.7892 V 35.9594 F 115.5948
G1 X 99.8198 Y 36.0966 U 99.8198 V 36.0966 F 115.4142
G1 X 100.8498 Y 36.2321 U 100.8498 V 36.2321 F 115.5135
G1 X 101.8809 Y 36.3663 U 101.8809 V 36.3663 F 115.4064
G1 X 102.9107 Y 36.4975 U 102.9107 V 36.4975 F 115.5948
G1 X 103.9404 Y 36.6287 U 103.9404 V 36.6287 F 115.5949
G1 X 104.9725 Y 36.7565 U 104.9725 V 36.7565 F 115.3951
G1 X 106.0027 Y 36.8840 U 106.0027 V 36.8840 F 115.5948
G1 X 107.0354 Y 37.0077 U 107.0354 V 37.0077 F 115.3780
G1 X 108.0677 Y 37.1314 U 108.0677 V 37.1314 F 115.4233
G1 X 109.0990 Y 37.2517 U 109.0990 V 37.2517 F 115.5667
G1 X 110.1316 Y 37.3711 U 110.1316 V 37.3711 F 115.4459
G1 X 111.1635 Y 37.4882 U 111.1635 V 37.4882 F 115.5435
G1 X 112.1960 Y 37.6034 U 112.1960 V 37.6034 F 115.5059
G1 X 113.2297 Y 37.7174 U 113.2297 V 37.7174 F 115.3937
G1 X 114.2619 Y 37.8280 U 114.2619 V 37.8280 F 115.5948
G1 X 115.2960 Y 37.9389 U 115.2960 V 37.9389 F 115.3840
G1 X 116.3286 Y 38.0457 U 116.3286 V 38.0457 F 115.5948
G1 X 117.3612 Y 38.1525 U 117.3612 V 38.1525 F 115.5948
G1 X 118.3961 Y 38.2554 U 118.3961 V 38.2554 F 115.3786
G1 X 119.4307 Y 38.3583 U 119.4307 V 38.3583 F 115.4246
G1 X 120.4643 Y 38.4579 U 120.4643 V 38.4579 F 115.5628
G1 X 121.4990 Y 38.5564 U 121.4990 V 38.5564 F 115.4473
G1 X 122.5332 Y 38.6527 U 122.5332 V 38.6527 F 115.5395
G1 X 123.5678 Y 38.7470 U 123.5678 V 38.7470 F 115.5046
G1 X 124.6036 Y 38.8400 U 124.6036 V 38.8400 F 115.3911
G1 X 125.6378 Y 38.9298 U 125.6378 V 38.9298 F 115.5948
G1 X 126.6739 Y 39.0197 U 126.6739 V 39.0197 F 115.3790
G1 X 127.7085 Y 39.1054 U 127.7085 V 39.1054 F 115.5948
G1 X 128.7431 Y 39.1912 U 128.7431 V 39.1912 F 115.5948
G1 X 129.7799 Y 39.2730 U 129.7799 V 39.2730 F 115.3794
G1 X 130.8148 Y 39.3547 U 130.8148 V 39.3547 F 115.5948
G1 X 131.8518 Y 39.4334 U 131.8518 V 39.4334 F 115.3876
G1 X 132.8873 Y 39.5106 U 132.8873 V 39.5106 F 115.5596
G1 X 133.9238 Y 39.5857 U 133.9238 V 39.5857 F 115.4769
G1 X 134.9607 Y 39.6585 U 134.9607 V 39.6585 F 115.4377
G1 X 135.9984 Y 39.7301 U 135.9984 V 39.7301 F 115.3718
G1 X 137.0343 Y 39.7980 U 137.0343 V 39.7980 F 115.5948
G1 X 138.0702 Y 39.8659 U 138.0702 V 39.8659 F 115.5949
G1 X 139.1085 Y 39.9294 U 139.1085 V 39.9294 F 115.3520
G1 X 140.1470 Y 39.9929 U 140.1470 V 39.9929 F 115.3409
G1 X 141.1834 Y 40.0515 U 141.1834 V 40.0515 F 115.5949
G1 X 142.2199 Y 40.1102 U 142.2199 V 40.1102 F 115.5948
G1 X 143.2588 Y 40.1650 U 143.2588 V 40.1650 F 115.3468
G1 X 144.2958 Y 40.2183 U 144.2958 V 40.2183 F 115.5571
G1 X 145.3353 Y 40.2689 U 145.3353 V 40.2689 F 115.3122
G1 X 146.3727 Y 40.3170 U 146.3727 V 40.3170 F 115.5422
G1 X 147.4122 Y 40.3631 U 147.4122 V 40.3631 F 115.3287
G1 X 148.4495 Y 40.4052 U 148.4495 V 40.4052 F 115.5948
G1 X 149.4867 Y 40.4473 U 149.4867 V 40.4473 F 115.5951
G1 X 150.5266 Y 40.4843 U 150.5266 V 40.4843 F 115.3209
G1 X 151.5641 Y 40.5213 U 151.5641 V 40.5213 F 115.5948
G1 X 152.6045 Y 40.5526 U 152.6045 V 40.5526 F 115.2860
G1 X 153.6448 Y 40.5838 U 153.6448 V 40.5838 F 115.3006
G1 X 154.6826 Y 40.6095 U 154.6826 V 40.6095 F 115.5951
G1 X 155.7204 Y 40.6352 U 155.7204 V 40.6352 F 115.5948
G1 X 156.7609 Y 40.6564 U 156.7609 V 40.6564 F 115.3008
G1 X 157.7993 Y 40.6756 U 157.7993 V 40.6756 F 115.5402
G1 X 158.8401 Y 40.6920 U 158.8401 V 40.6920 F 115.2806
G1 X 159.8786 Y 40.7052 U 159.8786 V 40.7052 F 115.5467
G1 X 160.9191 Y 40.7168 U 160.9191 V 40.7168 F 115.3180
G1 X 161.9572 Y 40.7240 U 161.9572 V 40.7240 F 115.5948
G1 X 162.9978 Y 40.7312 U 162.9978 V 40.7312 F 115.3215
G1 X 164.0359 Y 40.7333 U 164.0359 V 40.7333 F 115.5948
G1 X 165.0765 Y 40.7354 U 165.0765 V 40.7354 F 115.3191
G1 X 166.1146 Y 40.7323 U 166.1146 V 40.7323 F 115.5949
G1 X 167.1546 Y 40.7292 U 167.1546 V 40.7292 F 115.3800
G1 X 168.1930 Y 40.7222 U 168.1930 V 40.7222 F 115.5641
G1 X 169.2327 Y 40.7139 U 169.2327 V 40.7139 F 115.4129
G1 X 170.2712 Y 40.7029 U 170.2712 V 40.7029 F 115.5410
G1 X 171.3102 Y 40.6898 U 171.3102 V 40.6898 F 115.4921
G1 X 172.3486 Y 40.6749 U 172.3486 V 40.6749 F 115.5464
G1 X 173.3881 Y 40.6568 U 173.3881 V 40.6568 F 115.4201
G1 X 174.4280 Y 40.6386 U 174.4280 V 40.6386 F 115.3803
G1 X 175.4659 Y 40.6164 U 175.4659 V 40.6164 F 115.5948
G1 X 176.5058 Y 40.5942 U 176.5058 V 40.5942 F 115.3707
G1 X 177.5435 Y 40.5679 U 177.5435 V 40.5679 F 115.5948
G1 X 178.5813 Y 40.5416 U 178.5813 V 40.5416 F 115.5948
G1 X 179.6207 Y 40.5117 U 179.6207 V 40.5117 F 115.4090
G1 X 180.6597 Y 40.4819 U 180.6597 V 40.4819 F 115.4417
G1 X 181.6977 Y 40.4492 U 181.6977 V 40.4492 F 115.5523
G1 X 182.7361 Y 40.4149 U 182.7361 V 40.4149 F 115.4973
G1 X 183.7741 Y 40.3786 U 183.7741 V 40.3786 F 115.5403
G1 X 184.8131 Y 40.3395 U 184.8131 V 40.3395 F 115.4072
G1 X 185.8530 Y 40.2988 U 185.8530 V 40.2988 F 115.3105
G1 X 186.8901 Y 40.2537 U 186.8901 V 40.2537 F 115.5948
G1 X 187.9273 Y 40.2086 U 187.9273 V 40.2086 F 115.5950
G1 X 188.9672 Y 40.1570 U 188.9672 V 40.1570 F 115.2552
G1 X 190.0040 Y 40.1055 U 190.0040 V 40.1055 F 115.5948
G1 X 191.0440 Y 40.0464 U 191.0440 V 40.0464 F 115.1952
G1 X 192.0840 Y 39.9873 U 192.0840 V 39.9873 F 115.2033
G1 X 193.1203 Y 39.9210 U 193.1203 V 39.9210 F 115.5588
G1 X 194.1599 Y 39.8532 U 194.1599 V 39.8532 F 115.1870
G1 X 195.1965 Y 39.7785 U 195.1965 V 39.7785 F 115.4640
G1 X 196.2317 Y 39.7015 U 196.2317 V 39.7015 F 115.5948
G1 X 197.2714 Y 39.6175 U 197.2714 V 39.6175 F 115.0487
G1 X 198.3058 Y 39.5303 U 198.3058 V 39.5303 F 115.5948
G1 X 199.3450 Y 39.4361 U 199.3450 V 39.4361 F 115.0052
G1 X 200.3815 Y 39.3376 U 200.3815 V 39.3376 F 115.2532
G1 X 201.4169 Y 39.2327 U 201.4169 V 39.2327 F 115.3008
G1 X 202.4523 Y 39.1222 U 202.4523 V 39.1222 F 115.2525
G1 X 203.4869 Y 39.0054 U 203.4869 V 39.0054 F 115.2537
G1 X 204.5177 Y 38.8826 U 204.5177 V 38.8826 F 115.5948
G1 X 205.5508 Y 38.7530 U 205.5508 V 38.7530 F 115.2535
G1 X 206.5833 Y 38.6163 U 206.5833 V 38.6163 F 115.2148
G1 X 207.6181 Y 38.4728 U 207.6181 V 38.4728 F 114.8681
G1 X 208.6453 Y 38.3230 U 208.6453 V 38.3230 F 115.5948
G1 X 209.6781 Y 38.1662 U 209.6781 V 38.1662 F 114.8724
G1 X 210.7033 Y 38.0029 U 210.7033 V 38.0029 F 115.5948
G1 X 211.7303 Y 37.8333 U 211.7303 V 37.8333 F 115.2812
G1 X 212.7596 Y 37.6558 U 212.7596 V 37.6558 F 114.8920
G1 X 213.7851 Y 37.4730 U 213.7851 V 37.4730 F 115.2006
G1 X 214.8058 Y 37.2836 U 214.8058 V 37.2836 F 115.5948
G1 X 215.8280 Y 37.0883 U 215.8280 V 37.0883 F 115.3012
G1 X 216.8524 Y 36.8850 U 216.8524 V 36.8850 F 114.9053
G1 X 217.8731 Y 36.6768 U 217.8731 V 36.6768 F 115.1982
G1 X 218.8887 Y 36.4619 U 218.8887 V 36.4619 F 115.5948
G1 X 219.9058 Y 36.2410 U 219.9058 V 36.2410 F 115.2920
G1 X 220.9222 Y 36.0124 U 220.9222 V 36.0124 F 115.1931
G1 X 221.9365 Y 35.7781 U 221.9365 V 35.7781 F 115.2685
G1 X 222.9530 Y 35.5353 U 222.9530 V 35.5353 F 114.8197
G1 X 223.9646 Y 35.2865 U 223.9646 V 35.2865 F 115.1879
G1 X 224.9709 Y 35.0311 U 224.9709 V 35.0311 F 115.5948
G1 X 225.9822 Y 34.7662 U 225.9822 V 34.7662 F 114.7783
G1 X 226.9845 Y 34.4960 U 226.9845 V 34.4960 F 115.5948
G1 X 227.9919 Y 34.2146 U 227.9919 V 34.2146 F 114.7343
G1 X 228.9898 Y 33.9287 U 228.9898 V 33.9287 F 115.5948
G1 X 229.9925 Y 33.6296 U 229.9925 V 33.6296 F 114.6918
G1 X 230.9856 Y 33.3274 U 230.9856 V 33.3274 F 115.5948
G1 X 231.9827 Y 33.0101 U 231.9827 V 33.0101 F 114.6867
G1 X 232.9776 Y 32.6893 U 232.9776 V 32.6893 F 114.7937
G1 X 233.9609 Y 32.3565 U 233.9609 V 32.3565 F 115.5960
G1 X 234.9513 Y 32.0182 U 234.9513 V 32.0182 F 114.6536
G1 X 235.9314 Y 31.6678 U 235.9314 V 31.6678 F 115.2960
G1 X 236.9127 Y 31.3109 U 236.9127 V 31.3109 F 114.9206
G1 X 237.8896 Y 30.9420 U 237.8896 V 30.9420 F 114.9182
G1 X 238.8561 Y 30.5634 U 238.8561 V 30.5634 F 115.6007
G1 X 239.8234 Y 30.1753 U 239.8234 V 30.1753 F 115.1347
G1 X 240.7883 Y 29.7634 U 240.7883 V 29.7634 F 114.3798
G1 X 241.7503 Y 29.3393 U 241.7503 V 29.3393 F 114.1461
G1 X 242.6938 Y 28.9064 U 242.6938 V 28.9064 F 115.5948
G1 X 243.6375 Y 28.4423 U 243.6375 V 28.4423 F 114.1098
G1 X 244.5685 Y 27.9625 U 244.5685 V 27.9625 F 114.5737
G1 X 245.5013 Y 27.4555 U 245.5013 V 27.4555 F 113.0293
G1 X 246.4004 Y 26.9368 U 246.4004 V 26.9368 F 115.6017
G1 X 247.2965 Y 26.3833 U 247.2965 V 26.3833 F 113.9371
G1 X 248.1900 Y 25.7857 U 248.1900 V 25.7857 F 111.6373
G1 X 249.0305 Y 25.1766 U 249.0305 V 25.1766 F 115.5984
G1 X 249.8771 Y 24.5103 U 249.8771 V 24.5103 F 111.3937
G1 X 250.6672 Y 23.8372 U 250.6672 V 23.8372 F 115.6072
G1 X 251.4569 Y 23.1161 U 251.4569 V 23.1161 F 112.2096
G1 X 252.2099 Y 22.3882 U 252.2099 V 22.3882 F 114.5831
G1 X 252.9429 Y 21.6531 U 252.9429 V 21.6531 F 115.5976
G1 X 253.6833 Y 20.8622 U 253.6833 V 20.8622 F 110.7617
G1 X 254.3769 Y 20.0232 U 254.3769 V 20.0232 F 110.2326
G1 X 254.9956 Y 19.0894 U 254.9956 V 19.0894 F 107.1312
G1 X 255.4620 Y 18.0104 U 255.4620 V 18.0104 F 102.0833
G1 X 255.6087 Y 16.9881 U 255.6087 V 16.9881 F 116.1888
G1 X 255.6049 Y 17.3288 U 255.6049 V 17.3288 F 352.1215
;#1: A-1 - Right: End cutting Upper Wing Surface
G1 X 260.6100 Y 17.3288 U 260.6100 V 17.3288 F 23.9755
G1 X 255.6049 Y 17.3288 U 255.6049 V 17.3288 F 47.9509
;#1: A-1 - Right: Start cutting Lower Wing Surface
G1 X 255.6011 Y 16.8053 U 255.6011 V 16.8053 F 229.1972
G1 X 255.3755 Y 15.8219 U 255.3755 V 15.8219 F 118.9431
G1 X 254.8168 Y 14.8075 U 254.8168 V 14.8075 F 103.6154
G1 X 254.0918 Y 13.9655 U 254.0918 V 13.9655 F 108.0043
G1 X 253.2671 Y 13.2579 U 253.2671 V 13.2579 F 110.4244
G1 X 252.3697 Y 12.6654 U 252.3697 V 12.6654 F 111.5890
G1 X 251.4002 Y 12.1927 U 251.4002 V 12.1927 F 111.2542
G1 X 250.3599 Y 11.8193 U 250.3599 V 11.8193 F 108.5742
G1 X 249.3818 Y 11.5520 U 249.3818 V 11.5520 F 118.3476
G1 X 248.3697 Y 11.3247 U 248.3697 V 11.3247 F 115.6827
G1 X 247.3628 Y 11.1201 U 247.3628 V 11.1201 F 116.7970
G1 X 246.3623 Y 10.9236 U 246.3623 V 10.9236 F 117.6909
G1 X 245.3651 Y 10.7388 U 245.3651 V 10.7388 F 118.3167
G1 X 244.3478 Y 10.5678 U 244.3478 V 10.5678 F 116.3283
G1 X 243.3448 Y 10.4177 U 243.3448 V 10.4177 F 118.3231
G1 X 242.3313 Y 10.2831 U 242.3313 V 10.2831 F 117.3690
G1 X 241.3164 Y 10.1640 U 241.3164 V 10.1640 F 117.4333
G1 X 240.2960 Y 10.0665 U 240.2960 V 10.0665 F 117.0698
G1 X 239.2755 Y 9.9782 U 239.2755 V 9.9782 F 117.1535
G1 X 238.2590 Y 9.9019 U 238.2590 V 9.9019 F 117.7158
G1 X 237.2469 Y 9.8365 U 237.2469 V 9.8365 F 118.3186
G1 X 236.2287 Y 9.7746 U 236.2287 V 9.7746 F 117.6460
G1 X 235.2159 Y 9.7209 U 235.2159 V 9.7209 F 118.3165
G1 X 234.2005 Y 9.6670 U 234.2005 V 9.6670 F 118.0099
G1 X 233.1874 Y 9.6186 U 233.1874 V 9.6186 F 118.3162
G1 X 232.1712 Y 9.5700 U 232.1712 V 9.5700 F 117.9484
G1 X 231.1578 Y 9.5280 U 231.1578 V 9.5280 F 118.3163
G1 X 230.1409 Y 9.4858 U 230.1409 V 9.4858 F 117.8956
G1 X 229.1272 Y 9.4512 U 229.1272 V 9.4512 F 118.3166
G1 X 228.1136 Y 9.4165 U 228.1136 V 9.4165 F 118.3162
G1 X 227.0963 Y 9.3878 U 227.0963 V 9.3878 F 117.9106
G1 X 226.0799 Y 9.3611 U 226.0799 V 9.3611 F 118.0247
G1 X 225.0659 Y 9.3386 U 225.0659 V 9.3386 F 118.3169
G1 X 224.0505 Y 9.3188 U 224.0505 V 9.3188 F 118.1577
G1 X 223.0351 Y 9.3018 U 223.0351 V 9.3018 F 118.1581
G1 X 222.0187 Y 9.2885 U 222.0187 V 9.2885 F 118.0609
G1 X 221.0018 Y 9.2767 U 221.0018 V 9.2767 F 117.9997
G1 X 219.9876 Y 9.2697 U 219.9876 V 9.2697 F 118.3162
G1 X 218.9706 Y 9.2626 U 218.9706 V 9.2626 F 117.9889
G1 X 217.9564 Y 9.2613 U 217.9564 V 9.2613 F 118.3162
G1 X 216.9400 Y 9.2600 U 216.9400 V 9.2600 F 118.0682
G1 X 215.9255 Y 9.2630 U 215.9255 V 9.2630 F 118.2868
G1 X 214.9097 Y 9.2671 U 214.9097 V 9.2671 F 118.1235
G1 X 213.8955 Y 9.2739 U 213.8955 V 9.2739 F 118.3165
G1 X 212.8799 Y 9.2829 U 212.8799 V 9.2829 F 118.1530
G1 X 211.8653 Y 9.2934 U 211.8653 V 9.2934 F 118.2730
G1 X 210.8496 Y 9.3071 U 210.8496 V 9.3071 F 118.1341
G1 X 209.8355 Y 9.3207 U 209.8355 V 9.3207 F 118.3163
G1 X 208.8195 Y 9.3383 U 208.8195 V 9.3383 F 118.0911
G1 X 207.8037 Y 9.3559 U 207.8037 V 9.3559 F 118.1248
G1 X 206.7897 Y 9.3769 U 206.7897 V 9.3769 F 118.3163
G1 X 205.7757 Y 9.3978 U 205.7757 V 9.3978 F 118.3162
G1 X 204.7603 Y 9.4208 U 204.7603 V 9.4208 F 118.1421
G1 X 203.7459 Y 9.4457 U 203.7459 V 9.4457 F 118.2632
G1 X 202.7319 Y 9.4705 U 202.7319 V 9.4705 F 118.3163
G1 X 201.7169 Y 9.4979 U 201.7169 V 9.4979 F 118.1731
G1 X 200.7017 Y 9.5253 U 200.7017 V 9.5253 F 118.1701
G1 X 199.6879 Y 9.5552 U 199.6879 V 9.5552 F 118.3162
G1 X 198.6737 Y 9.5851 U 198.6737 V 9.5851 F 118.2613
G1 X 197.6595 Y 9.6169 U 197.6595 V 9.6169 F 118.2613
G1 X 196.6455 Y 9.6488 U 196.6455 V 9.6488 F 118.2849
G1 X 195.6312 Y 9.6817 U 195.6312 V 9.6817 F 118.2494
G1 X 194.6172 Y 9.7158 U 194.6172 V 9.7158 F 118.2806
G1 X 193.6032 Y 9.7500 U 193.6032 V 9.7500 F 118.2723
G1 X 192.5891 Y 9.7859 U 192.5891 V 9.7859 F 118.2586
G1 X 191.5753 Y 9.8221 U 191.5753 V 9.8221 F 118.2914
G1 X 190.5616 Y 9.8587 U 190.5616 V 9.8587 F 118.2938
G1 X 189.5478 Y 9.8956 U 189.5478 V 9.8956 F 118.2918
G1 X 188.5341 Y 9.9329 U 188.5341 V 9.9329 F 118.2957
G1 X 187.5204 Y 9.9706 U 187.5204 V 9.9706 F 118.2976
G1 X 186.5067 Y 10.0086 U 186.5067 V 10.0086 F 118.2994
G1 X 185.4931 Y 10.0467 U 185.4931 V 10.0467 F 118.3052
G1 X 184.4795 Y 10.0851 U 184.4795 V 10.0851 F 118.3073
G1 X 183.4660 Y 10.1235 U 183.4660 V 10.1235 F 118.3117
G1 X 182.6073 Y 10.1623 U 182.6073 V 10.1623 F 139.6045
;#1: A-1 - Right: Start cutting 'Spar #1 'Spar 1''
G1 X 182.6073 Y 15.8289 U 182.6073 V 15.8289 F 21.1768
G1 X 182.5679 Y 15.8294 U 182.5679 V 15.8294 F 3043.2178
G1 X 182.5285 Y 15.8309 U 182.5285 V 15.8309 F 3043.2178
G1 X 182.4891 Y 15.8335 U 182.4891 V 15.8335 F 3043.2178
G1 X 182.4499 Y 15.8372 U 182.4499 V 15.8372 F 3043.2178
G1 X 182.4107 Y 15.8418 U 182.4107 V 15.8418 F 3043.2178
G1 X 182.3717 Y 15.8475 U 182.3717 V 15.8475 F 3043.2178
G1 X 182.3328 Y 15.8542 U 182.3328 V 15.8542 F 3043.2178
G1 X 182.2942 Y 15.8619 U 182.2942 V 15.8619 F 3043.2178
G1 X 182.2557 Y 15.8707 U 182.2557 V 15.8707 F 3043.2178
G1 X 182.2175 Y 15.8804 U 182.2175 V 15.8804 F 3043.2178
G1 X 182.1796 Y 15.8912 U 182.1796 V 15.8912 F 3043.2178
G1 X 182.1419 Y 15.9029 U 182.1419 V 15.9029 F 3043.2178
G1 X 182.1046 Y 15.9156 U 182.1046 V 15.9156 F 3043.2178
G1 X 182.0676 Y 15.9293 U 182.0676 V 15.9293 F 3043.2178
G1 X 182.0310 Y 15.9440 U 182.0310 V 15.9440 F 3043.2178
G1 X 181.9948 Y 15.9596 U 181.9948 V 15.9596 F 3043.2178
G1 X 181.9590 Y 15.9762 U 181.9590 V 15.9762 F 3043.2178
G1 X 181.9237 Y 15.9937 U 181.9237 V 15.9937 F 3043.2178
G1 X 181.8888 Y 16.0121 U 181.8888 V 16.0121 F 3043.2178
G1 X 181.8545 Y 16.0315 U 181.8545 V 16.0315 F 3043.2178
G1 X 181.8206 Y 16.0517 U 181.8206 V 16.0517 F 3043.2178
G1 X 181.7873 Y 16.0728 U 181.7873 V 16.0728 F 3043.2178
G1 X 181.7546 Y 16.0948 U 181.7546 V 16.0948 F 3043.2178
G1 X 181.7225 Y 16.1177 U 181.7225 V 16.1177 F 3043.2178
G1 X 181.6909 Y 16.1413 U 181.6909 V 16.1413 F 3043.2178
G1 X 181.6600 Y 16.1658 U 181.6600 V 16.1658 F 3043.2178
G1 X 181.6298 Y 16.1911 U 181.6298 V 16.1911 F 3043.2178
G1 X 181.6002 Y 16.2172 U 181.6002 V 16.2172 F 3043.2178
G1 X 181.5713 Y 16.2441 U 181.5713 V 16.2441 F 3043.2178
G1 X 181.5432 Y 16.2717 U 181.5432 V 16.2717 F 3043.2178
G1 X 181.5158 Y 16.3000 U 181.5158 V 16.3000 F 3043.2178
G1 X 181.4891 Y 16.3291 U 181.4891 V 16.3291 F 3043.2178
G1 X 181.4632 Y 16.3588 U 181.4632 V 16.3588 F 3043.2178
G1 X 181.4381 Y 16.3892 U 181.4381 V 16.3892 F 3043.2178
G1 X 181.4138 Y 16.4203 U 181.4138 V 16.4203 F 3043.2178
G1 X 181.3903 Y 16.4520 U 181.3903 V 16.4520 F 3043.2178
G1 X 181.3677 Y 16.4843 U 181.3677 V 16.4843 F 3043.2178
G1 X 181.3459 Y 16.5171 U 181.3459 V 16.5171 F 3043.2178
G1 X 181.3250 Y 16.5506 U 181.3250 V 16.5506 F 3043.2178
G1 X 181.3050 Y 16.5845 U 181.3050 V 16.5845 F 3043.2178
G1 X 181.2859 Y 16.6190 U 181.2859 V 16.6190 F 3043.2178
G1 X 181.2677 Y 16.6540 U 181.2677 V 16.6540 F 3043.2178
G1 X 181.2504 Y 16.6895 U 181.2504 V 16.6895 F 3043.2178
G1 X 181.2341 Y 16.7253 U 181.2341 V 16.7253 F 3043.2178
G1 X 181.2187 Y 16.7617 U 181.2187 V 16.7617 F 3043.2178
G1 X 181.2043 Y 16.7984 U 181.2043 V 16.7984 F 3043.2178
G1 X 181.1908 Y 16.8354 U 181.1908 V 16.8354 F 3043.2178
G1 X 181.1783 Y 16.8728 U 181.1783 V 16.8728 F 3043.2178
G1 X 181.1668 Y 16.9105 U 181.1668 V 16.9105 F 3043.2178
G1 X 181.1563 Y 16.9485 U 181.1563 V 16.9485 F 3043.2178
G1 X 181.1468 Y 16.9868 U 181.1468 V 16.9868 F 3043.2178
G1 X 181.1384 Y 17.0253 U 181.1384 V 17.0253 F 3043.2178
G1 X 181.1309 Y 17.0640 U 181.1309 V 17.0640 F 3043.2178
G1 X 181.1244 Y 17.1029 U 181.1244 V 17.1029 F 3043.2178
G1 X 181.1190 Y 17.1420 U 181.1190 V 17.1420 F 3043.2178
G1 X 181.1146 Y 17.1812 U 181.1146 V 17.1812 F 3043.2178
G1 X 181.1113 Y 17.2205 U 181.1113 V 17.2205 F 3043.2178
G1 X 181.1089 Y 17.2598 U 181.1089 V 17.2598 F 3043.2178
G1 X 181.1076 Y 17.2993 U 181.1076 V 17.2993 F 3043.2178
G1 X 181.1074 Y 17.3387 U 181.1074 V 17.3387 F 3043.2178
G1 X 181.1081 Y 17.3781 U 181.1081 V 17.3781 F 3043.2178
G1 X 181.1100 Y 17.4175 U 181.1100 V 17.4175 F 3043.2178
G1 X 181.1128 Y 17.4568 U 181.1128 V 17.4568 F 3043.2178
G1 X 181.1167 Y 17.4961 U 181.1167 V 17.4961 F 3043.2178
G1 X 181.1216 Y 17.5352 U 181.1216 V 17.5352 F 3043.2178
G1 X 181.1275 Y 17.5742 U 181.1275 V 17.5742 F 3043.2178
G1 X 181.1345 Y 17.6130 U 181.1345 V 17.6130 F 3043.2178
G1 X 181.1425 Y 17.6516 U 181.1425 V 17.6516 F 3043.2178
G1 X 181.1515 Y 17.6900 U 181.1515 V 17.6900 F 3043.2178
G1 X 181.1615 Y 17.7281 U 181.1615 V 17.7281 F 3043.2178
G1 X 181.1725 Y 17.7660 U 181.1725 V 17.7660 F 3043.2178
G1 X 181.1845 Y 17.8036 U 181.1845 V 17.8036 F 3043.2178
G1 X 181.1974 Y 17.8408 U 181.1974 V 17.8408 F 3043.2178
G1 X 181.2114 Y 17.8777 U 181.2114 V 17.8777 F 3043.2178
G1 X 181.2263 Y 17.9142 U 181.2263 V 17.9142 F 3043.2178
G1 X 181.2421 Y 17.9503 U 181.2421 V 17.9503 F 3043.2178
G1 X 181.2590 Y 17.9860 U 181.2590 V 17.9860 F 3043.2178
G1 X 181.2767 Y 18.0212 U 181.2767 V 18.0212 F 3043.2178
G1 X 181.2953 Y 18.0559 U 181.2953 V 18.0559 F 3043.2178
G1 X 181.3149 Y 18.0902 U 181.3149 V 18.0902 F 3043.2178
G1 X 181.3354 Y 18.1239 U 181.3354 V 18.1239 F 3043.2178
G1 X 181.3567 Y 18.1570 U 181.3567 V 18.1570 F 3043.2178
G1 X 181.3789 Y 18.1896 U 181.3789 V 18.1896 F 3043.2178
G1 X 181.4020 Y 18.2216 U 181.4020 V 18.2216 F 3043.2178
G1 X 181.4259 Y 18.2530 U 181.4259 V 18.2530 F 3043.2178
G1 X 181.4506 Y 18.2837 U 181.4506 V 18.2837 F 3043.2178
G1 X 181.4761 Y 18.3138 U 181.4761 V 18.3138 F 3043.2178
G1 X 181.5023 Y 18.3432 U 181.5023 V 18.3432 F 3043.2178
G1 X 181.5294 Y 18.3719 U 181.5294 V 18.3719 F 3043.2178
G1 X 181.5572 Y 18.3999 U 181.5572 V 18.3999 F 3043.2178
G1 X 181.5857 Y 18.4271 U 181.5857 V 18.4271 F 3043.2178
G1 X 181.6149 Y 18.4536 U 181.6149 V 18.4536 F 3043.2178
G1 X 181.6448 Y 18.4793 U 181.6448 V 18.4793 F 3043.2178
G1 X 181.6754 Y 18.5042 U 181.6754 V 18.5042 F 3043.2178
G1 X 181.7066 Y 18.5283 U 181.7066 V 18.5283 F 3043.2178
G1 X 181.7385 Y 18.5515 U 181.7385 V 18.5515 F 3043.2178
G1 X 181.7709 Y 18.5739 U 181.7709 V 18.5739 F 3043.2178
G1 X 181.8039 Y 18.5955 U 181.8039 V 18.5955 F 3043.2178
G1 X 181.8375 Y 18.6162 U 181.8375 V 18.6162 F 3043.2178
G1 X 181.8716 Y 18.6360 U 181.8716 V 18.6360 F 3043.2178
G1 X 181.9062 Y 18.6549 U 181.9062 V 18.6549 F 3043.2178
G1 X 181.9413 Y 18.6728 U 181.9413 V 18.6728 F 3043.2178
G1 X 181.9769 Y 18.6899 U 181.9769 V 18.6899 F 3043.2178
G1 X 182.0129 Y 18.7060 U 182.0129 V 18.7060 F 3043.2178
G1 X 182.0493 Y 18.7211 U 182.0493 V 18.7211 F 3043.2178
G1 X 182.0861 Y 18.7353 U 182.0861 V 18.7353 F 3043.2178
G1 X 182.1232 Y 18.7485 U 182.1232 V 18.7485 F 3043.2178
G1 X 182.1607 Y 18.7608 U 182.1607 V 18.7608 F 3043.2178
G1 X 182.1985 Y 18.7720 U 182.1985 V 18.7720 F 3043.2178
G1 X 182.2366 Y 18.7822 U 182.2366 V 18.7822 F 3043.2178
G1 X 182.2749 Y 18.7915 U 182.2749 V 18.7915 F 3043.2178
G1 X 182.3135 Y 18.7997 U 182.3135 V 18.7997 F 3043.2178
G1 X 182.3522 Y 18.8069 U 182.3522 V 18.8069 F 3043.2178
G1 X 182.3912 Y 18.8131 U 182.3912 V 18.8131 F 3043.2178
G1 X 182.4303 Y 18.8183 U 182.4303 V 18.8183 F 3043.2178
G1 X 182.4695 Y 18.8224 U 182.4695 V 18.8224 F 3043.2178
G1 X 182.5088 Y 18.8255 U 182.5088 V 18.8255 F 3043.2178
G1 X 182.5482 Y 18.8276 U 182.5482 V 18.8276 F 3043.2178
G1 X 182.5876 Y 18.8287 U 182.5876 V 18.8287 F 3043.2178
G1 X 182.6270 Y 18.8287 U 182.6270 V 18.8287 F 3043.2178
G1 X 182.6664 Y 18.8276 U 182.6664 V 18.8276 F 3043.2178
G1 X 182.7058 Y 18.8255 U 182.7058 V 18.8255 F 3043.2178
G1 X 182.7451 Y 18.8224 U 182.7451 V 18.8224 F 3043.2178
G1 X 182.7843 Y 18.8183 U 182.7843 V 18.8183 F 3043.2178
G1 X 182.8234 Y 18.8131 U 182.8234 V 18.8131 F 3043.2178
G1 X 182.8624 Y 18.8069 U 182.8624 V 18.8069 F 3043.2178
G1 X 182.9011 Y 18.7997 U 182.9011 V 18.7997 F 3043.2178
G1 X 182.9397 Y 18.7915 U 182.9397 V 18.7915 F 3043.2178
G1 X 182.9780 Y 18.7822 U 182.9780 V 18.7822 F 3043.2178
G1 X 183.0161 Y 18.7720 U 183.0161 V 18.7720 F 3043.2178
G1 X 183.0539 Y 18.7608 U 183.0539 V 18.7608 F 3043.2178
G1 X 183.0914 Y 18.7485 U 183.0914 V 18.7485 F 3043.2178
G1 X 183.1285 Y 18.7353 U 183.1285 V 18.7353 F 3043.2178
G1 X 183.1653 Y 18.7211 U 183.1653 V 18.7211 F 3043.2178
G1 X 183.2017 Y 18.7060 U 183.2017 V 18.7060 F 3043.2178
G1 X 183.2377 Y 18.6899 U 183.2377 V 18.6899 F 3043.2178
G1 X 183.2733 Y 18.6728 U 183.2733 V 18.6728 F 3043.2178
G1 X 183.3084 Y 18.6549 U 183.3084 V 18.6549 F 3043.2178
G1 X 183.3430 Y 18.6360 U 183.3430 V 18.6360 F 3043.2178
G1 X 183.3771 Y 18.6162 U 183.3771 V 18.6162 F 3043.2178
G1 X 183.4107 Y 18.5955 U 183.4107 V 18.5955 F 3043.2178
G1 X 183.4437 Y 18.5739 U 183.4437 V 18.5739 F 3043.2178
G1 X 183.4761 Y 18.5515 U 183.4761 V 18.5515 F 3043.2178
G1 X 183.5080 Y 18.5283 U 183.5080 V 18.5283 F 3043.2178
G1 X 183.5392 Y 18.5042 U 183.5392 V 18.5042 F 3043.2178
G1 X 183.5698 Y 18.4793 U 183.5698 V 18.4793 F 3043.2178
G1 X 183.5997 Y 18.4536 U 183.5997 V 18.4536 F 3043.2178
G1 X 183.6289 Y 18.4271 U 183.6289 V 18.4271 F 3043.2178
G1 X 183.6574 Y 18.3999 U 183.6574 V 18.3999 F 3043.2178
G1 X 183.6852 Y 18.3719 U 183.6852 V 18.3719 F 3043.2178
G1 X 183.7123 Y 18.3432 U 183.7123 V 18.3432 F 3043.2178
G1 X 183.7385 Y 18.3138 U 183.7385 V 18.3138 F 3043.2178
G1 X 183.7640 Y 18.2837 U 183.7640 V 18.2837 F 3043.2178
G1 X 183.7887 Y 18.2530 U 183.7887 V 18.2530 F 3043.2178
G1 X 183.8126 Y 18.2216 U 183.8126 V 18.2216 F 3043.2178
G1 X 183.8357 Y 18.1896 U 183.8357 V 18.1896 F 3043.2178
G1 X 183.8579 Y 18.1570 U 183.8579 V 18.1570 F 3043.2178
G1 X 183.8792 Y 18.1239 U 183.8792 V 18.1239 F 3043.2178
G1 X 183.8997 Y 18.0902 U 183.8997 V 18.0902 F 3043.2178
G1 X 183.9192 Y 18.0559 U 183.9192 V 18.0559 F 3043.2178
G1 X 183.9379 Y 18.0212 U 183.9379 V 18.0212 F 3043.2178
G1 X 183.9556 Y 17.9860 U 183.9556 V 17.9860 F 3043.2178
G1 X 183.9724 Y 17.9503 U 183.9724 V 17.9503 F 3043.2178
G1 X 183.9883 Y 17.9142 U 183.9883 V 17.9142 F 3043.2178
G1 X 184.0032 Y 17.8777 U 184.0032 V 17.8777 F 3043.2178
G1 X 184.0172 Y 17.8408 U 184.0172 V 17.8408 F 3043.2178
G1 X 184.0301 Y 17.8036 U 184.0301 V 17.8036 F 3043.2178
G1 X 184.0421 Y 17.7660 U 184.0421 V 17.7660 F 3043.2178
G1 X 184.0531 Y 17.7281 U 184.0531 V 17.7281 F 3043.2178
G1 X 184.0631 Y 17.6900 U 184.0631 V 17.6900 F 3043.2178
G1 X 184.0721 Y 17.6516 U 184.0721 V 17.6516 F 3043.2178
G1 X 184.0801 Y 17.6130 U 184.0801 V 17.6130 F 3043.2178
G1 X 184.0870 Y 17.5742 U 184.0870 V 17.5742 F 3043.2178
G1 X 184.0930 Y 17.5352 U 184.0930 V 17.5352 F 3043.2178
G1 X 184.0979 Y 17.4961 U 184.0979 V 17.4961 F 3043.2178
G1 X 184.1018 Y 17.4568 U 184.1018 V 17.4568 F 3043.2178
G1 X 184.1046 Y 17.4175 U 184.1046 V 17.4175 F 3043.2178
G1 X 184.1064 Y 17.3781 U 184.1064 V 17.3781 F 3043.2178
G1 X 184.1072 Y 17.3387 U 184.1072 V 17.3387 F 3043.2178
G1 X 184.1070 Y 17.2993 U 184.1070 V 17.2993 F 3043.2178
G1 X 184.1057 Y 17.2598 U 184.1057 V 17.2598 F 3043.2178
G1 X 184.1033 Y 17.2205 U 184.1033 V 17.2205 F 3043.2178
G1 X 184.1000 Y 17.1812 U 184.1000 V 17.1812 F 3043.2178
G1 X 184.0956 Y 17.1420 U 184.0956 V 17.1420 F 3043.2178
G1 X 184.0901 Y 17.1029 U 184.0901 V 17.1029 F 3043.2178
G1 X 184.0837 Y 17.0640 U 184.0837 V 17.0640 F 3043.2178
G1 X 184.0762 Y 17.0253 U 184.0762 V 17.0253 F 3043.2178
G1 X 184.0677 Y 16.9868 U 184.0677 V 16.9868 F 3043.2178
G1 X 184.0582 Y 16.9485 U 184.0582 V 16.9485 F 3043.2178
G1 X 184.0477 Y 16.9105 U 184.0477 V 16.9105 F 3043.2178
G1 X 184.0363 Y 16.8728 U 184.0363 V 16.8728 F 3043.2178
G1 X 184.0238 Y 16.8354 U 184.0238 V 16.8354 F 3043.2178
G1 X 184.0103 Y 16.7984 U 184.0103 V 16.7984 F 3043.2178
G1 X 183.9959 Y 16.7617 U 183.9959 V 16.7617 F 3043.2178
G1 X 183.9805 Y 16.7253 U 183.9805 V 16.7253 F 3043.2178
G1 X 183.9642 Y 16.6895 U 183.9642 V 16.6895 F 3043.2178
G1 X 183.9469 Y 16.6540 U 183.9469 V 16.6540 F 3043.2178
G1 X 183.9287 Y 16.6190 U 183.9287 V 16.6190 F 3043.2178
G1 X 183.9096 Y 16.5845 U 183.9096 V 16.5845 F 3043.2178
G1 X 183.8896 Y 16.5506 U 183.8896 V 16.5506 F 3043.2178
G1 X 183.8687 Y 16.5171 U 183.8687 V 16.5171 F 3043.2178
G1 X 183.8469 Y 16.4843 U 183.8469 V 16.4843 F 3043.2178
G1 X 183.8243 Y 16.4520 U 183.8243 V 16.4520 F 3043.2178
G1 X 183.8008 Y 16.4203 U 183.8008 V 16.4203 F 3043.2178
G1 X 183.7765 Y 16.3892 U 183.7765 V 16.3892 F 3043.2178
G1 X 183.7514 Y 16.3588 U 183.7514 V 16.3588 F 3043.2178
G1 X 183.7255 Y 16.3291 U 183.7255 V 16.3291 F 3043.2178
G1 X 183.6988 Y 16.3000 U 183.6988 V 16.3000 F 3043.2178
G1 X 183.6714 Y 16.2717 U 183.6714 V 16.2717 F 3043.2178
G1 X 183.6432 Y 16.2441 U 183.6432 V 16.2441 F 3043.2178
G1 X 183.6144 Y 16.2172 U 183.6144 V 16.2172 F 3043.2178
G1 X 183.5848 Y 16.1911 U 183.5848 V 16.1911 F 3043.2178
G1 X 183.5546 Y 16.1658 U 183.5546 V 16.1658 F 3043.2178
G1 X 183.5237 Y 16.1413 U 183.5237 V 16.1413 F 3043.2178
G1 X 183.4921 Y 16.1177 U 183.4921 V 16.1177 F 3043.2178
G1 X 183.4600 Y 16.0948 U 183.4600 V 16.0948 F 3043.2178
G1 X 183.4273 Y 16.0728 U 183.4273 V 16.0728 F 3043.2178
G1 X 183.3940 Y 16.0517 U 183.3940 V 16.0517 F 3043.2178
G1 X 183.3601 Y 16.0315 U 183.3601 V 16.0315 F 3043.2178
G1 X 183.3258 Y 16.0121 U 183.3258 V 16.0121 F 3043.2178
G1 X 183.2909 Y 15.9937 U 183.2909 V 15.9937 F 3043.2178
G1 X 183.2556 Y 15.9762 U 183.2556 V 15.9762 F 3043.2178
G1 X 183.2198 Y 15.9596 U 183.2198 V 15.9596 F 3043.2178
G1 X 183.1836 Y 15.9440 U 183.1836 V 15.9440 F 3043.2178
G1 X 183.1470 Y 15.9293 U 183.1470 V 15.9293 F 3043.2178
G1 X 183.1100 Y 15.9156 U 183.1100 V 15.9156 F 3043.2178
G1 X 183.0727 Y 15.9029 U 183.0727 V 15.9029 F 3043.2178
G1 X 183.0350 Y 15.8912 U 183.0350 V 15.8912 F 3043.2178
G1 X 182.9971 Y 15.8804 U 182.9971 V 15.8804 F 3043.2178
G1 X 182.9589 Y 15.8707 U 182.9589 V 15.8707 F 3043.2178
G1 X 182.9204 Y 15.8619 U 182.9204 V 15.8619 F 3043.2178
G1 X 182.8818 Y 15.8542 U 182.8818 V 15.8542 F 3043.2178
G1 X 182.8429 Y 15.8475 U 182.8429 V 15.8475 F 3043.2178
G1 X 182.8039 Y 15.8418 U 182.8039 V 15.8418 F 3043.2178
G1 X 182.7647 Y 15.8372 U 182.7647 V 15.8372 F 3043.2178
G1 X 182.7255 Y 15.8335 U 182.7255 V 15.8335 F 3043.2178
G1 X 182.6861 Y 15.8309 U 182.6861 V 15.8309 F 3043.2178
G1 X 182.6467 Y 15.8294 U 182.6467 V 15.8294 F 3043.2178
G1 X 182.6073 Y 15.8289 U 182.6073 V 15.8289 F 3043.2178
;#1: A-1 - Right: end cutting 'Spar #1 'Spar 1''
G1 X 182.6073 Y 10.1623 U 182.6073 V 10.1623 F 21.1768
G1 X 183.4660 Y 10.1235 U 183.4660 V 10.1235 F 139.6045
G1 X 182.4525 Y 10.1620 U 182.4525 V 10.1620 F 118.3157
G1 X 181.4390 Y 10.2005 U 181.4390 V 10.2005 F 118.3173
G1 X 180.4255 Y 10.2390 U 180.4255 V 10.2390 F 118.3217
G1 X 179.4121 Y 10.2773 U 179.4121 V 10.2773 F 118.3235
G1 X 178.3986 Y 10.3155 U 178.3986 V 10.3155 F 118.3235
G1 X 177.3852 Y 10.3536 U 177.3852 V 10.3536 F 118.3247
G1 X 176.3717 Y 10.3916 U 176.3717 V 10.3916 F 118.3234
G1 X 175.3583 Y 10.4294 U 175.3583 V 10.4294 F 118.3241
G1 X 174.3448 Y 10.4672 U 174.3448 V 10.4672 F 118.3229
G1 X 173.3313 Y 10.5047 U 173.3313 V 10.5047 F 118.3231
G1 X 172.3179 Y 10.5422 U 172.3179 V 10.5422 F 118.3230
G1 X 171.3044 Y 10.5796 U 171.3044 V 10.5796 F 118.3216
G1 X 170.2909 Y 10.6169 U 170.2909 V 10.6169 F 118.3217
G1 X 169.2774 Y 10.6541 U 169.2774 V 10.6541 F 118.3206
G1 X 168.2638 Y 10.6912 U 168.2638 V 10.6912 F 118.3206
G1 X 167.2503 Y 10.7282 U 167.2503 V 10.7282 F 118.3198
G1 X 166.2368 Y 10.7652 U 166.2368 V 10.7652 F 118.3195
G1 X 165.2233 Y 10.8022 U 165.2233 V 10.8022 F 118.3194
G1 X 164.2097 Y 10.8390 U 164.2097 V 10.8390 F 118.3183
G1 X 163.1962 Y 10.8759 U 163.1962 V 10.8759 F 118.3180
G1 X 162.1826 Y 10.9127 U 162.1826 V 10.9127 F 118.3174
G1 X 161.1691 Y 10.9495 U 161.1691 V 10.9495 F 118.3169
G1 X 160.1555 Y 10.9863 U 160.1555 V 10.9863 F 118.3166
G1 X 159.1419 Y 11.0231 U 159.1419 V 11.0231 F 118.3158
G1 X 158.1284 Y 11.0600 U 158.1284 V 11.0600 F 118.3154
G1 X 157.1148 Y 11.0968 U 157.1148 V 11.0968 F 118.3150
G1 X 156.1012 Y 11.1336 U 156.1012 V 11.1336 F 118.3144
G1 X 155.0876 Y 11.1705 U 155.0876 V 11.1705 F 118.3145
G1 X 154.0741 Y 11.2074 U 154.0741 V 11.2074 F 118.3139
G1 X 153.0605 Y 11.2444 U 153.0605 V 11.2444 F 118.3140
G1 X 152.0469 Y 11.2814 U 152.0469 V 11.2814 F 118.3139
G1 X 151.0333 Y 11.3184 U 151.0333 V 11.3184 F 118.3138
G1 X 150.0198 Y 11.3555 U 150.0198 V 11.3555 F 118.3142
G1 X 149.0062 Y 11.3926 U 149.0062 V 11.3926 F 118.3141
G1 X 147.9926 Y 11.4297 U 147.9926 V 11.4297 F 118.3145
G1 X 146.9791 Y 11.4669 U 146.9791 V 11.4669 F 118.3146
G1 X 145.9655 Y 11.5041 U 145.9655 V 11.5041 F 118.3147
G1 X 144.9519 Y 11.5413 U 144.9519 V 11.5413 F 118.3150
G1 X 143.9384 Y 11.5785 U 143.9384 V 11.5785 F 118.3150
G1 X 142.9248 Y 11.6158 U 142.9248 V 11.6158 F 118.3152
G1 X 141.9113 Y 11.6531 U 141.9113 V 11.6531 F 118.3152
G1 X 140.8977 Y 11.6904 U 140.8977 V 11.6904 F 118.3154
G1 X 139.8842 Y 11.7277 U 139.8842 V 11.7277 F 118.3154
G1 X 138.8706 Y 11.7650 U 138.8706 V 11.7650 F 118.3155
G1 X 137.8571 Y 11.8023 U 137.8571 V 11.8023 F 118.3157
G1 X 136.8435 Y 11.8396 U 136.8435 V 11.8396 F 118.3158
G1 X 135.8300 Y 11.8770 U 135.8300 V 11.8770 F 118.3160
G1 X 134.8164 Y 11.9143 U 134.8164 V 11.9143 F 118.3162
G1 X 133.8029 Y 11.9517 U 133.8029 V 11.9517 F 118.3163
G1 X 132.7893 Y 11.9890 U 132.7893 V 11.9890 F 118.3165
G1 X 131.7758 Y 12.0263 U 131.7758 V 12.0263 F 118.3166
G1 X 130.7623 Y 12.0636 U 130.7623 V 12.0636 F 118.3167
G1 X 129.7487 Y 12.1009 U 129.7487 V 12.1009 F 118.3169
G1 X 128.7352 Y 12.1382 U 128.7352 V 12.1382 F 118.3168
G1 X 127.7216 Y 12.1755 U 127.7216 V 12.1755 F 118.3168
G1 X 126.7081 Y 12.2128 U 126.7081 V 12.2128 F 118.3168
G1 X 125.6946 Y 12.2501 U 125.6946 V 12.2501 F 118.3168
G1 X 124.6810 Y 12.2873 U 124.6810 V 12.2873 F 118.3168
G1 X 123.6675 Y 12.3246 U 123.6675 V 12.3246 F 118.3167
G1 X 122.6539 Y 12.3618 U 122.6539 V 12.3618 F 118.3167
G1 X 121.6404 Y 12.3991 U 121.6404 V 12.3991 F 118.3166
G1 X 120.6268 Y 12.4363 U 120.6268 V 12.4363 F 118.3166
G1 X 119.6133 Y 12.4735 U 119.6133 V 12.4735 F 118.3165
G1 X 118.5998 Y 12.5107 U 118.5998 V 12.5107 F 118.3165
G1 X 117.5862 Y 12.5479 U 117.5862 V 12.5479 F 118.3165
G1 X 116.5727 Y 12.5852 U 116.5727 V 12.5852 F 118.3164
G1 X 115.5591 Y 12.6224 U 115.5591 V 12.6224 F 118.3163
G1 X 114.5456 Y 12.6596 U 114.5456 V 12.6596 F 118.3163
G1 X 113.5320 Y 12.6968 U 113.5320 V 12.6968 F 118.3163
G1 X 112.5185 Y 12.7340 U 112.5185 V 12.7340 F 118.3163
G1 X 111.5049 Y 12.7712 U 111.5049 V 12.7712 F 118.3163
G1 X 110.4914 Y 12.8083 U 110.4914 V 12.8083 F 118.3163
G1 X 109.4778 Y 12.8455 U 109.4778 V 12.8455 F 118.3163
G1 X 108.4643 Y 12.8827 U 108.4643 V 12.8827 F 118.3162
G1 X 107.4507 Y 12.9199 U 107.4507 V 12.9199 F 118.3162
G1 X 106.4372 Y 12.9571 U 106.4372 V 12.9571 F 118.3161
G1 X 105.4236 Y 12.9943 U 105.4236 V 12.9943 F 118.3160
G1 X 104.4101 Y 13.0315 U 104.4101 V 13.0315 F 118.3160
G1 X 103.3965 Y 13.0687 U 103.3965 V 13.0687 F 118.3160
G1 X 102.3830 Y 13.1059 U 102.3830 V 13.1059 F 118.3160
G1 X 101.3694 Y 13.1431 U 101.3694 V 13.1431 F 118.3160
G1 X 100.3559 Y 13.1803 U 100.3559 V 13.1803 F 118.3161
G1 X 99.3423 Y 13.2176 U 99.3423 V 13.2176 F 118.3161
G1 X 98.3288 Y 13.2548 U 98.3288 V 13.2548 F 118.3161
G1 X 97.3152 Y 13.2920 U 97.3152 V 13.2920 F 118.3161
G1 X 96.3017 Y 13.3292 U 96.3017 V 13.3292 F 118.3161
G1 X 95.2881 Y 13.3664 U 95.2881 V 13.3664 F 118.3162
G1 X 94.2746 Y 13.4037 U 94.2746 V 13.4037 F 118.3161
G1 X 93.2610 Y 13.4409 U 93.2610 V 13.4409 F 118.3161
G1 X 92.2475 Y 13.4781 U 92.2475 V 13.4781 F 118.3161
G1 X 91.2340 Y 13.5153 U 91.2340 V 13.5153 F 118.3188
G1 X 90.2205 Y 13.5523 U 90.2205 V 13.5523 F 118.3257
G1 X 89.2071 Y 13.5891 U 89.2071 V 13.5891 F 118.3327
G1 X 88.1937 Y 13.6256 U 88.1937 V 13.6256 F 118.3375
G1 X 87.1803 Y 13.6618 U 87.1803 V 13.6618 F 118.3407
G1 X 86.1669 Y 13.6977 U 86.1669 V 13.6977 F 118.3431
G1 X 85.1536 Y 13.7331 U 85.1536 V 13.7331 F 118.3451
G1 X 84.1402 Y 13.7683 U 84.1402 V 13.7683 F 118.3469
G1 X 83.1268 Y 13.8030 U 83.1268 V 13.8030 F 118.3485
G1 X 82.1135 Y 13.8373 U 82.1135 V 13.8373 F 118.3500
G1 X 81.1001 Y 13.8713 U 81.1001 V 13.8713 F 118.3515
G1 X 80.0868 Y 13.9049 U 80.0868 V 13.9049 F 118.3530
G1 X 79.0734 Y 13.9381 U 79.0734 V 13.9381 F 118.3545
G1 X 78.0600 Y 13.9709 U 78.0600 V 13.9709 F 118.3560
G1 X 77.0467 Y 14.0033 U 77.0467 V 14.0033 F 118.3574
G1 X 76.0333 Y 14.0354 U 76.0333 V 14.0354 F 118.3589
G1 X 75.0200 Y 14.0671 U 75.0200 V 14.0671 F 118.3603
G1 X 74.0066 Y 14.0984 U 74.0066 V 14.0984 F 118.3617
G1 X 72.9933 Y 14.1293 U 72.9933 V 14.1293 F 118.3630
G1 X 71.9799 Y 14.1598 U 71.9799 V 14.1598 F 118.3644
G1 X 70.9665 Y 14.1899 U 70.9665 V 14.1899 F 118.3657
G1 X 69.9532 Y 14.2197 U 69.9532 V 14.2197 F 118.3670
G1 X 68.9398 Y 14.2490 U 68.9398 V 14.2490 F 118.3683
G1 X 67.9265 Y 14.2780 U 67.9265 V 14.2780 F 118.3696
G1 X 66.9131 Y 14.3066 U 66.9131 V 14.3066 F 118.3709
G1 X 65.8997 Y 14.3349 U 65.8997 V 14.3349 F 118.3721
G1 X 64.8864 Y 14.3627 U 64.8864 V 14.3627 F 118.3734
G1 X 63.8730 Y 14.3902 U 63.8730 V 14.3902 F 118.3746
G1 X 62.8597 Y 14.4172 U 62.8597 V 14.4172 F 118.3758
G1 X 61.8463 Y 14.4439 U 61.8463 V 14.4439 F 118.3770
G1 X 60.8329 Y 14.4702 U 60.8329 V 14.4702 F 118.3781
G1 X 59.8196 Y 14.4962 U 59.8196 V 14.4962 F 118.3793
G1 X 58.8062 Y 14.5217 U 58.8062 V 14.5217 F 118.3804
G1 X 57.7929 Y 14.5469 U 57.7929 V 14.5469 F 118.3815
G1 X 56.7795 Y 14.5717 U 56.7795 V 14.5717 F 118.3826
G1 X 55.7661 Y 14.5960 U 55.7661 V 14.5960 F 118.3837
G1 X 54.7528 Y 14.6201 U 54.7528 V 14.6201 F 118.3848
G1 X 53.7394 Y 14.6437 U 53.7394 V 14.6437 F 118.3858
G1 X 52.7261 Y 14.6669 U 52.7261 V 14.6669 F 118.3869
G1 X 51.7127 Y 14.6898 U 51.7127 V 14.6898 F 118.3879
G1 X 50.6994 Y 14.7123 U 50.6994 V 14.7123 F 118.3889
G1 X 49.6860 Y 14.7344 U 49.6860 V 14.7344 F 118.3899
G1 X 48.6726 Y 14.7561 U 48.6726 V 14.7561 F 118.3908
G1 X 47.6593 Y 14.7775 U 47.6593 V 14.7775 F 118.3918
G1 X 46.6459 Y 14.7984 U 46.6459 V 14.7984 F 118.3927
G1 X 45.6326 Y 14.8190 U 45.6326 V 14.8190 F 118.3936
G1 X 44.6192 Y 14.8392 U 44.6192 V 14.8392 F 118.3945
G1 X 43.6058 Y 14.8590 U 43.6058 V 14.8590 F 118.3954
G1 X 42.5925 Y 14.8784 U 42.5925 V 14.8784 F 118.3963
G1 X 41.5791 Y 14.8974 U 41.5791 V 14.8974 F 118.3971
G1 X 40.5658 Y 14.9161 U 40.5658 V 14.9161 F 118.3980
G1 X 39.5524 Y 14.9344 U 39.5524 V 14.9344 F 118.3988
G1 X 38.5390 Y 14.9523 U 38.5390 V 14.9523 F 118.3996
G1 X 37.5257 Y 14.9698 U 37.5257 V 14.9698 F 118.4004
G1 X 36.5123 Y 14.9869 U 36.5123 V 14.9869 F 118.4011
G1 X 35.4990 Y 15.0036 U 35.4990 V 15.0036 F 118.4019
G1 X 34.4856 Y 15.0200 U 34.4856 V 15.0200 F 118.4026
G1 X 33.4722 Y 15.0360 U 33.4722 V 15.0360 F 118.4033
G1 X 32.4589 Y 15.0516 U 32.4589 V 15.0516 F 118.4040
G1 X 31.4455 Y 15.0668 U 31.4455 V 15.0668 F 118.4047
G1 X 30.4322 Y 15.0816 U 30.4322 V 15.0816 F 118.4054
G1 X 29.4188 Y 15.0961 U 29.4188 V 15.0961 F 118.4060
G1 X 28.4055 Y 15.1101 U 28.4055 V 15.1101 F 118.4066
G1 X 27.3921 Y 15.1238 U 27.3921 V 15.1238 F 118.4073
G1 X 26.3787 Y 15.1371 U 26.3787 V 15.1371 F 118.4078
G1 X 25.3654 Y 15.1500 U 25.3654 V 15.1500 F 118.4084
G1 X 24.3520 Y 15.1626 U 24.3520 V 15.1626 F 118.4090
G1 X 23.3387 Y 15.1747 U 23.3387 V 15.1747 F 118.4095
G1 X 22.3253 Y 15.1865 U 22.3253 V 15.1865 F 118.4100
G1 X 21.3119 Y 15.1979 U 21.3119 V 15.1979 F 118.4106
G1 X 20.2986 Y 15.2089 U 20.2986 V 15.2089 F 118.4111
G1 X 19.2852 Y 15.2195 U 19.2852 V 15.2195 F 118.4116
G1 X 18.2719 Y 15.2298 U 18.2719 V 15.2298 F 118.4120
G1 X 17.2585 Y 15.2396 U 17.2585 V 15.2396 F 118.4125
G1 X 16.2451 Y 15.2491 U 16.2451 V 15.2491 F 118.4129
G1 X 15.2318 Y 15.2582 U 15.2318 V 15.2582 F 118.4133
G1 X 14.2184 Y 15.2669 U 14.2184 V 15.2669 F 118.4137
G1 X 13.2051 Y 15.2752 U 13.2051 V 15.2752 F 118.4141
G1 X 12.1917 Y 15.2832 U 12.1917 V 15.2832 F 118.4144
G1 X 11.1783 Y 15.2907 U 11.1783 V 15.2907 F 118.4146
G1 X 10.1650 Y 15.2979 U 10.1650 V 15.2979 F 118.4149
G1 X 9.1516 Y 15.3047 U 9.1516 V 15.3047 F 118.4152
G1 X 8.1383 Y 15.3111 U 8.1383 V 15.3111 F 118.4156
G1 X 7.1249 Y 15.3171 U 7.1249 V 15.3171 F 118.4160
G1 X 6.1115 Y 15.3230 U 6.1115 V 15.3230 F 118.4052
G1 X 5.0979 Y 15.3288 U 5.0979 V 15.3288 F 118.3944
G1 X 5.0490 Y 17.3288 U 5.0490 V 17.3288 F 59.9823
G1 X 0.0000 Y 17.3288 U 0.0000 V 17.3288 F 47.5346
;#1: A-1 - Right: End cutting Lower Wing Surface
;End Cutting Blocks
G94
;Switch Off Hot wire

