( Wing segment 1/1 for left side )
( Wing root airfoil: CLARK-Y 11.7% smoothed, 150mm chord )
( Wing tip airfoil: CLARK-Y 11.7% smoothed, 150mm chord )
( Wing segment length: 500 mm )
( Foam block width: 500 mm )
( Foam block height: 100 mm )
( Foam block length: 500 mm )
( Foam block offset: 50 mm )
( Machine X/U axis length: 500 mm )
( Machine Y/V axis length: 300 mm )
( Cutting speed: 300 mm/min )
( Hot wire relay control speed: false )
G17
G21
( SET ABSOLUTE MODE )
G90
( SET CUTTER COMPENSATION )
G40
( SET TOOL LENGTH OFFSET )
G49
( SET PATH CONTROL MODE )
G64
( SET FEED RATE MODE )
G94
F300
( FIRST-VERTICAL )
G1 X0.00 Y9.32 U0.00 V9.32
( PRE-ENTRY )
G1 X0.00 Y9.32 U0.00 V9.32
( ENTRY )
G1 X10.00 Y9.32 U10.00 V9.32
( TOP SECTION )
G1 X10.00 Y9.32 U10.00 V9.32
G1 X10.16 Y10.17 U10.16 V10.17
G1 X10.64 Y11.13 U10.64 V11.13
G1 X11.44 Y12.16 U11.44 V12.16
G1 X12.55 Y13.23 U12.55 V13.23
G1 X13.98 Y14.28 U13.98 V14.28
G1 X15.71 Y15.29 U15.71 V15.29
G1 X17.73 Y16.27 U17.73 V16.27
G1 X20.04 Y17.22 U20.04 V17.22
G1 X22.64 Y18.16 U22.64 V18.16
G1 X25.49 Y19.08 U25.49 V19.08
G1 X28.61 Y19.96 U28.61 V19.96
G1 X31.96 Y20.75 U31.96 V20.75
G1 X35.54 Y21.43 U35.54 V21.43
G1 X39.34 Y21.99 U39.34 V21.99
G1 X43.33 Y22.42 U43.33 V22.42
G1 X47.49 Y22.76 U47.49 V22.76
G1 X51.82 Y23.00 U51.82 V23.00
G1 X56.29 Y23.17 U56.29 V23.17
G1 X60.89 Y23.25 U60.89 V23.25
G1 X65.58 Y23.24 U65.58 V23.24
G1 X75.20 Y22.97 U75.20 V22.97
G1 X84.99 Y22.36 U84.99 V22.36
G1 X94.78 Y21.45 U94.78 V21.45
G1 X104.41 Y20.27 U104.41 V20.27
G1 X113.70 Y18.90 U113.70 V18.90
G1 X122.50 Y17.42 U122.50 V17.42
G1 X130.65 Y15.90 U130.65 V15.90
G1 X138.03 Y14.41 U138.03 V14.41
G1 X144.50 Y13.02 U144.50 V13.02
G1 X149.95 Y11.80 U149.95 V11.80
G1 X154.29 Y10.77 U154.29 V10.77
G1 X157.44 Y9.99 U157.44 V9.99
G1 X159.36 Y9.49 U159.36 V9.49
G1 X160.00 Y9.32 U160.00 V9.32
G1 X160.00 Y9.32 U160.00 V9.32
( EASING )
G1 X170.00 Y9.32 U170.00 V9.32
( EASING RETURN )
G1 X160.00 Y9.32 U160.00 V9.32
( BOTTOM SECTION )
G1 X160.00 Y9.32 U160.00 V9.32
G1 X160.00 Y9.32 U160.00 V9.32
G1 X159.36 Y9.28 U159.36 V9.28
G1 X157.44 Y9.18 U157.44 V9.18
G1 X154.29 Y9.03 U154.29 V9.03
G1 X149.95 Y8.86 U149.95 V8.86
G1 X144.50 Y8.67 U144.50 V8.67
G1 X138.03 Y8.45 U138.03 V8.45
G1 X130.66 Y8.19 U130.66 V8.19
G1 X122.50 Y7.91 U122.50 V7.91
G1 X113.70 Y7.60 U113.70 V7.60
G1 X104.41 Y7.28 U104.41 V7.28
G1 X94.79 Y6.94 U94.79 V6.94
G1 X85.00 Y6.60 U85.00 V6.60
G1 X75.21 Y6.25 U75.21 V6.25
G1 X65.59 Y5.91 U65.59 V5.91
G1 X60.89 Y5.75 U60.89 V5.75
G1 X56.30 Y5.58 U56.30 V5.58
G1 X51.83 Y5.43 U51.83 V5.43
G1 X47.50 Y5.29 U47.50 V5.29
G1 X43.33 Y5.16 U43.33 V5.16
G1 X39.34 Y5.07 U39.34 V5.07
G1 X35.55 Y5.01 U35.55 V5.01
G1 X31.97 Y5.00 U31.97 V5.00
G1 X28.61 Y5.03 U28.61 V5.03
G1 X25.50 Y5.11 U25.50 V5.11
G1 X22.64 Y5.23 U22.64 V5.23
G1 X20.05 Y5.40 U20.05 V5.40
G1 X17.74 Y5.63 U17.74 V5.63
G1 X15.71 Y5.93 U15.71 V5.93
G1 X13.98 Y6.31 U13.98 V6.31
G1 X12.56 Y6.77 U12.56 V6.77
G1 X11.44 Y7.30 U11.44 V7.30
G1 X10.64 Y7.90 U10.64 V7.90
G1 X10.16 Y8.57 U10.16 V8.57
G1 X10.00 Y9.32 U10.00 V9.32
( PRE-EXIT )
G1 X0.00 Y9.32 U0.00 V9.32
( EXIT )
G1 X0.00 Y9.32 U0.00 V9.32
( GO TO ZERO )
G1 X0.00 Y0.00 U0.00 V0.00
M2